inst/assets/svg/wi-moon-alt-waning-crescent-2.svg

<?xml version="1.0" encoding="UTF-8"?>
<svg xmlns="http://www.w3.org/2000/svg" xmlns:xlink="http://www.w3.org/1999/xlink" width="30pt" height="30pt" viewBox="0 0 30 30" version="1.1">
<g id="surface331">
<path style=" stroke:none;fill-rule:nonzero;fill:rgb(0%,0%,0%);fill-opacity:1;" d="M 3.738281 14.441406 C 3.738281 12.921875 4.039063 11.460938 4.628906 10.070313 C 5.21875 8.679688 6.03125 7.488281 7.03125 6.480469 C 8.03125 5.46875 9.230469 4.671875 10.621094 4.078125 C 12.011719 3.488281 13.460938 3.191406 14.988281 3.191406 C 16.519531 3.191406 17.96875 3.488281 19.359375 4.078125 C 20.75 4.671875 21.949219 5.480469 22.960938 6.480469 C 23.96875 7.480469 24.769531 8.679688 25.359375 10.070313 C 25.949219 11.460938 26.25 12.910156 26.25 14.441406 C 26.25 15.96875 25.949219 17.421875 25.359375 18.808594 C 24.769531 20.199219 23.960938 21.398438 22.960938 22.410156 C 21.960938 23.421875 20.761719 24.21875 19.359375 24.808594 C 17.960938 25.398438 16.511719 25.699219 14.988281 25.699219 C 13.46875 25.699219 12.011719 25.398438 10.621094 24.808594 C 9.230469 24.21875 8.039063 23.410156 7.03125 22.410156 C 6.019531 21.410156 5.21875 20.210938 4.628906 18.808594 C 4.039063 17.410156 3.738281 15.96875 3.738281 14.441406 Z M 4.941406 14.441406 C 4.941406 15.800781 5.199219 17.089844 5.730469 18.328125 C 6.261719 19.570313 6.96875 20.628906 7.851563 21.53125 C 8.730469 22.429688 9.800781 23.148438 11.019531 23.679688 C 12.238281 24.210938 13.539063 24.488281 14.890625 24.5 C 13.730469 22.03125 13.148438 18.671875 13.148438 14.441406 C 13.148438 10.828125 13.75 7.480469 14.949219 4.390625 C 13.589844 4.390625 12.300781 4.660156 11.058594 5.199219 C 9.820313 5.738281 8.761719 6.449219 7.871094 7.351563 C 6.980469 8.25 6.261719 9.320313 5.730469 10.550781 C 5.199219 11.78125 4.941406 13.089844 4.941406 14.441406 Z M 4.941406 14.441406 "/>
</g>
</svg>

<?xml version="1.0" encoding="utf-8"?>
<!-- Generator: Adobe Illustrator 22.0.1, SVG Export Plug-In . SVG Version: 6.00 Build 0)  -->
<svg version="1.1" id="Layer_1" xmlns="http://www.w3.org/2000/svg" xmlns:xlink="http://www.w3.org/1999/xlink" x="0px" y="0px"
	 viewBox="0 0 30 30" style="enable-background:new 0 0 30 30;" xml:space="preserve">
<path d="M3.74,14.44c0-1.52,0.3-2.98,0.89-4.37s1.4-2.58,2.4-3.59s2.2-1.81,3.59-2.4s2.84-0.89,4.37-0.89s2.98,0.3,4.37,0.89
	s2.59,1.4,3.6,2.4s1.81,2.2,2.4,3.59s0.89,2.84,0.89,4.37s-0.3,2.98-0.89,4.37s-1.4,2.59-2.4,3.6s-2.2,1.81-3.6,2.4
	s-2.85,0.89-4.37,0.89s-2.98-0.3-4.37-0.89s-2.58-1.4-3.59-2.4s-1.81-2.2-2.4-3.6S3.74,15.97,3.74,14.44z M4.94,14.44
	c0,1.36,0.26,2.65,0.79,3.89s1.24,2.3,2.12,3.2s1.95,1.62,3.17,2.15s2.52,0.81,3.87,0.82c-1.16-2.47-1.74-5.83-1.74-10.06
	c0-3.61,0.6-6.96,1.8-10.05c-1.36,0-2.65,0.27-3.89,0.81s-2.3,1.25-3.19,2.15s-1.61,1.97-2.14,3.2S4.94,13.09,4.94,14.44z"/>
</svg>
